assets/github_white_24.svg

<?xml version="1.0" encoding="UTF-8" standalone="no"?>
<svg width="22px" height="22px" viewBox="0 0 22 22" version="1.1" xmlns="http://www.w3.org/2000/svg" xmlns:xlink="http://www.w3.org/1999/xlink" xmlns:sketch="http://www.bohemiancoding.com/sketch/ns">
    <!-- Generator: Sketch 3.3.1 (12002) - http://www.bohemiancoding.com/sketch -->
    <title>Shape</title>
    <desc>Created with Sketch.</desc>
    <defs></defs>
    <g id="Page-1" stroke="none" stroke-width="1" fill="none" fill-rule="evenodd" sketch:type="MSPage">
        <g id="github_white_24" sketch:type="MSLayerGroup" fill="#FFFFFF">
            <g id="Page-1" sketch:type="MSShapeGroup">
                <g id="80---Spotlight">
                    <path d="M0,11 C0,15.8608399 3.1515,19.9831543 7.52288277,21.4373671 C8.07275388,21.538086 8.27350388,21.1983535 8.27350388,20.9083144 C8.27350388,20.6464629 8.2634277,19.7790527 8.25805668,18.8605957 C5.19921875,19.5252578 4.55266799,17.5634765 4.55266799,17.5634765 C4.05182424,16.2932129 3.33141013,15.9548339 3.33141013,15.9548339 C2.33172069,15.2727051 3.40725,15.2861328 3.40725,15.2861328 C4.51167576,15.3626601 5.09312888,16.4194336 5.09312888,16.4194336 C6.07470701,18.100586 7.66856833,17.6145019 8.29430076,17.3325195 C8.39428911,16.6235351 8.67895701,16.1374512 8.99254299,15.8635254 C6.55071487,15.585582 3.982,14.6416015 3.982,10.426625 C3.982,9.22483201 4.41102145,8.24462888 5.11328125,7.47454299 C5.00115431,7.19524612 4.62249214,6.07603902 5.22203513,4.56207813 C5.22203513,4.56207813 6.14453125,4.26666799 8.24729299,5.69000786 C9.12411326,5.44495701 10.0647422,5.32410743 10.9999785,5.32006832 C11.9345488,5.32410743 12.8758223,5.44628902 13.7540176,5.69133987 C15.8527832,4.26666799 16.7766113,4.56341013 16.7766113,4.56341013 C17.3781738,6.07872458 16.9995117,7.19657813 16.8867188,7.47454299 C17.591664,8.24462888 18.017334,9.22485355 18.017334,10.426625 C18.017334,14.6523438 15.4445801,15.582875 12.9940293,15.8554688 C13.3901582,16.1965332 13.7406113,16.8652344 13.7406113,17.8911133 C13.7406113,19.361461 13.7258301,20.5471192 13.7258301,20.909668 C13.7258301,21.2023926 13.9258926,21.544789 14.4831543,21.4373671 C18.851207,19.9804688 22,15.8581543 22,11 C22,4.92529299 17.074707,0 11,0 C4.92529299,0 0,4.92529299 0,11 Z" id="Shape"></path>
                </g>
            </g>
        </g>
    </g>
</svg>

<svg width="22" height="22" viewBox="0 0 22 22" xmlns="http://www.w3.org/2000/svg"><title>Shape</title><path d="M0 11c0 4.86 3.151 8.983 7.523 10.437.55.101.75-.239.75-.529 0-.262-.01-1.129-.015-2.047-3.059.664-3.705-1.298-3.705-1.298-.501-1.27-1.222-1.608-1.222-1.608-1-.682.076-.669.076-.669 1.105.077 1.686 1.133 1.686 1.133.982 1.682 2.576 1.196 3.201.914.1-.71.385-1.196.699-1.47-2.442-.277-5.011-1.221-5.011-5.436 0-1.202.429-2.182 1.131-2.952-.112-.28-.49-1.399.109-2.913 0 0 .923-.295 3.025 1.128A10.471 10.471 0 0 1 11 5.32a10.49 10.49 0 0 1 2.754.371c2.099-1.424 3.023-1.128 3.023-1.128.601 1.516.223 2.634.11 2.912.705.77 1.13 1.75 1.13 2.952 0 4.225-2.572 5.156-5.023 5.428.396.342.747 1.01.747 2.036 0 1.47-.015 2.656-.015 3.019 0 .292.2.635.757.527C18.851 19.98 22 15.858 22 11c0-6.075-4.925-11-11-11S0 4.925 0 11z" fill="#FFF" fill-rule="evenodd"/></svg>
